X:1
T:Day's Yet to Come Waltz 
T:Arling Shaeffer (1859 - 1943)
%%score { ( 1 2 3 ) ( 4 5 6 ) }
L:1/8
Q:1/4=132
M:3/4
K:A
V:1 treble-8 nm="Classical Guitar"
V:2 treble-8 
V:3 treble-8 
V:4 tab stafflines=6 strings=E2,A2,D3,G3,B3,E4 nostems nm="Guitare classique [Tablature]"
V:5 tab stafflines=6 strings=E2,A2,D3,G3,B3,E4 nostems 
V:6 tab stafflines=6 strings=E2,A2,D3,G3,B3,E4 nostems 
V:1
S"^Tempo di Waltz""^ ≃ 126" e2 |{/!4!a} Pc'3 !4!a cA | [Aca]2 [Aca]2 [Aca]2 |{/a} Pb3"^C2" f dB | %4
 [Bdf]2 [Bdf]2 [Bdf]2 | g3 e dG | G2 [Gd]2 [Gdf]2 | f4 [A=cf]2 | [Ace]2 [B^df]2 [B=dg]e | %9
{/a} Pc'3 a cA | [Aca]2 [Aca]2 [Aca]2 |{/a} Pb3"^C2" f dB | [Bdf]2 [Bdf]2 [Bdf]2 | %13
 (3(e/f/)e/^d/e/ (fe)gf | dBGEDB, | A,!3!CEAce |"^₵2" !arpeggio!!4![EAca]4!fine! |:[K:E] e2 | %18
 !4![GBg]2 [GBg]3 e | BGEGBe |"^C2" [Acf]2 [Acf]3 c | A!4!F!3!CFAc | [FAd]2 [FAd]3 c | A2 d2 c2 | %24
 [GB]2 [^Ac]2 [=Ad]2 | [Be]2"^C2" [Acf]2 =g2 | [GBg]2 [GBg]3 e | BGEGBe |"^C2" [Acf]2 [Acf]3 c | %29
 A!4!F!3!CFAc | [^Aef]2 [Aef]3 c | [FAd]2 [Bg]2 [ABf]2 | [GBe]2 [GBe]2 [GBe]2 |1 %33
 !arpeggio![GBe]4 :|2 [G=de]4!D.C.! ||[K:D]"^Trio." !4![Ada]2 [Adf]3 d | A(DF)Adf | %37
 [GBe]2 [GBe]3 B | G(E,/G,/)B,EGB | [EGc]2 [Gce]3 [Gcg] | [Gce]6 | [df]2 [gb]2 [^e^g]2 | [fa]6 | %43
 [Ada]2 [Adf]3 d | A(DF)Adf | [GBe]2 [GBe]3 B | G(E,/G,/)B,EGB | [EGc]2 [EGB]2 [EGc]2 | %48
 [Gcf]2 [Gce]2 Bc | d2 A2 f2 |1 [Ad]6 :|2 [Ad]4!D.S.! |] %52
V:2
 x2 | A,6 | E2 !3!C2 A,2 | D6 | F2 B,2 F2 | E,6 | E4 B,2 | ^D4 D2 | A,2 B,2 E,2 | A,6 | E2 C2 A,2 | %11
 D6 | F2 B,2 F2 | E,6 | E,6 | x6 | A,4 |:[K:E] x2 | E,4 E,2 | E,6 | F,4 F,2 | F,6 | B,4 B,2 | %23
 D2 F2 E2 | E,2 ^A,2 =A,2 | !4!G,2 F,2 z2 | E,4 E,2 | E,6 | F,4 F,2 | F,6 | F,4 F,2 | B,4 D2 | %32
 E2 B,2 G,2 |1 E,4 :|2 E,4 ||[K:D] D4 D2 | x6 | E,4 G,2 | x6 | A,4 A,2 |xA,CEGc | D6 | DA,B,CDE | %43
 D4 D2 | x6 | E,4 G,2 | x6 | EA, EA, EA, | GA, GA, [EG]2 | D4 D2 |1 D6 :|2 D4 |] %52
V:3
 x2 | x6 | x6 | x6 | x6 | x6 | x6 | z2 [A=c]2 x2 | x6 | x6 | x6 | x6 | x6 | x6 | x6 | x6 | x4 |: %17
[K:E] x2 | x6 | x6 | x6 | x6 | x6 | x6 | x6 | x6 | x6 | x6 | x6 | x6 | x6 | x6 | x6 |1 x4 :|2 x4 || %35
[K:D] x6 | x6 | x6 | x6 | x6 | x6 | x6 | x6 | x6 | x6 | x6 | x6 | x6 | x6 | x6 |1 x6 :|2 x4 |] %52
V:4
 !1!E2 |{/!1!A} !1!c3 !1!A !2!C !3!A, | [!3!A,!2!C!1!A]2 [!3!A,!2!C!1!A]2 [!3!A,!2!C!1!A]2 | %3
{/!1!A} !1!B3 !1!F !2!D !3!B, | [!3!B,!2!D!1!F]2 [!3!B,!2!D!1!F]2 [!3!B,!2!D!1!F]2 | %5
 !1!G3 !1!E !2!D !3!G, | !3!G,2 [!3!G,!2!D]2 [!3!G,!2!D!1!F]2 | !1!F4 [!3!A,!2!=C!1!F]2 | %8
 [!3!A,!2!C!1!E]2 [!3!B,!2!^D!1!F]2 [!3!B,!2!=D!1!G] !1!E |{/!1!A} !1!c3 !1!A !2!C !3!A, | %10
 [!3!A,!2!C!1!A]2 [!3!A,!2!C!1!A]2 [!3!A,!2!C!1!A]2 |{/!1!A} !1!B3 !1!F !2!D !3!B, | %12
 [!3!B,!2!D!1!F]2 [!3!B,!2!D!1!F]2 [!3!B,!2!D!1!F]2 | %13
 (3(!1!E/ !1!F/) !1!E/ !2!^D/ !1!E/ (!1!F !1!E) !1!G !1!F | !2!D !2!B, !3!G, !4!E, !4!D, !5!B,, | %15
 !5!A,, !5!C, !4!E, !3!A, !2!C !1!E | [!4!E,!3!A,!2!C!1!A]4 |:[K:E] !1!E2 | %18
 [!3!G,!2!B,!1!G]2 [!3!G,!2!B,!1!G]3 !1!E | !2!B, !3!G, !4!E, !3!G, !2!B, !1!E | %20
 [!3!A,!2!C!1!F]2 [!3!A,!2!C!1!F]3 !2!C | !3!A, !4!F, !5!C, !4!F, !3!A, !2!C | %22
 [!4!F,!3!A,!2!D]2 [!4!F,!3!A,!2!D]3 !2!C | !3!A,2 !2!D2 !2!C2 | %24
 [!3!G,!2!B,]2 [!3!^A,!2!C]2 [!3!=A,!2!D]2 | [!2!B,!1!E]2 [!3!A,!2!C!1!F]2 !1!=G2 | %26
 [!3!G,!2!B,!1!G]2 [!3!G,!2!B,!1!G]3 !1!E | !2!B, !3!G, !4!E, !3!G, !2!B, !1!E | %28
 [!3!A,!2!C!1!F]2 [!3!A,!2!C!1!F]3 !2!C | !3!A, !4!F, !5!C, !4!F, !3!A, !2!C | %30
 [!3!^A,!2!E!1!F]2 [!3!A,!2!E!1!F]3 !2!C | [!4!F,!3!A,!2!D]2 [!3!B,!1!G]2 [!3!A,!2!B,!1!F]2 | %32
 [!3!G,!2!B,!1!E]2 [!3!G,!2!B,!1!E]2 [!3!G,!2!B,!1!E]2 |1 [!3!G,!2!B,!1!E]4 :|2 %34
 [!3!G,!2!=D!1!E]4 ||[K:D] [!3!A,!2!D!1!A]2 [!3!A,!2!D!1!F]3 !2!D | %36
 !3!A, (!4!D, !4!F,) !3!A, !2!D !1!F | [!3!G,!2!B,!1!E]2 [!3!G,!2!B,!1!E]3 !2!B, | %38
 !3!G, (!6!E,,/ !6!G,,/) !5!B,, !4!E, !3!G, !2!B, | %39
 [!4!E,!3!G,!2!C]2 [!3!G,!2!C!1!E]3 [!3!G,!2!C!1!G] | [!3!G,!2!C!1!E]6 | %41
 [!2!D!1!F]2 [!2!G!1!B]2 [!2!^E!1!^G]2 | [!2!F!1!A]6 | [!3!A,!2!D!1!A]2 [!3!A,!2!D!1!F]3 !2!D | %44
 !3!A, (!4!D, !4!F,) !3!A, !2!D !1!F | [!3!G,!2!B,!1!E]2 [!3!G,!2!B,!1!E]3 !2!B, | %46
 !3!G, (!6!E,,/ !6!G,,/) !5!B,, !4!E, !3!G, !2!B, | %47
 [!4!E,!3!G,!2!C]2 [!4!E,!3!G,!2!B,]2 [!4!E,!3!G,!2!C]2 | %48
 [!3!G,!2!C!1!F]2 [!3!G,!2!C!1!E]2 !2!B, !2!C | !2!D2 !3!A,2 !1!F2 |1 [!3!A,!2!D]6 :|2 %51
 [!3!A,!2!D]4 |] %52
V:5
 x2 | !5!A,,6 | !4!E,2 !5!C,2 !5!A,,2 | !4!D,6 | !4!F,2 !5!B,,2 !4!F,2 | !6!E,,6 | !4!E,4 !5!B,,2 | %7
 !4!^D,4 !4!D,2 | !5!A,,2 !5!B,,2 !6!E,,2 | !5!A,,6 | !4!E,2 !5!C,2 !5!A,,2 | !4!D,6 | %12
 !4!F,2 !5!B,,2 !4!F,2 | !6!E,,6 | !6!E,,6 | x6 | !5!A,,4 |:[K:E] x2 | !6!E,,4 !6!E,,2 | !6!E,,6 | %20
 !6!F,,4 !6!F,,2 | !6!F,,6 | !5!B,,4 !5!B,,2 | !4!D,2 !4!F,2 !4!E,2 | !6!E,,2 !5!^A,,2 !5!=A,,2 | %25
 !6!G,,2 !6!F,,2 x2 | !6!E,,4 !6!E,,2 | !6!E,,6 | !6!F,,4 !6!F,,2 | !6!F,,6 | !6!F,,4 !6!F,,2 | %31
 !5!B,,4 !4!D,2 | !4!E,2 !5!B,,2 !6!G,,2 |1 !6!E,,4 :|2 !6!E,,4 ||[K:D] !4!D,4 !4!D,2 | x6 | %37
 !6!E,,4 !6!G,,2 | x6 | !5!A,,4 !5!A,,2 | !4!x !5!A,, !5!C, !4!E, !3!G, !2!C | !4!D,6 | %42
 !4!D, !5!A,, !5!B,, !5!C, !4!D, !4!E, | !4!D,4 !4!D,2 | x6 | !6!E,,4 !6!G,,2 | x6 | %47
 x !5!A,, x !5!A,, x !5!A,, | x !5!A,, x !5!A,, [!4!E,!3!G,]2 | !4!D,4 !4!D,2 |1 !4!D,6 :|2 %51
 !4!D,4 |] %52
V:6
 x2 | x6 | x6 | x6 | x6 | x6 | x6 | x2 [!3!A,!2!=C]2 x2 | x6 | x6 | x6 | x6 | x6 | x6 | x6 | x6 | %16
 x4 |:[K:E] x2 | x6 | x6 | x6 | x6 | x6 | x6 | x6 | x6 | x6 | x6 | x6 | x6 | x6 | x6 | x6 |1 x4 :|2 %34
 x4 ||[K:D] x6 | x6 | x6 | x6 | x6 | x6 | x6 | x6 | x6 | x6 | x6 | x6 | x6 | x6 | x6 |1 x6 :|2 %51
 x4 |] %52

